%
(Header)
(Generated by gcodetools from Inkscape.)
(Using default header. To add your own header create file "header" in the output dir.)
M3
(Header end.)
G21 (All units in mm)

(Start cutting path id: path1)
(Change tool to Default tool)

G00 Z2.000000
G00 X32.218399 Y38.621070

G01 Z-1.000000 F100.0(Penetrate)
G02 X32.310614 Y39.898074 Z-1.000000 I8.888176 J0.000000 F400.000000
G03 X32.218399 Y41.148000 Z-1.000000 I-2.869808 J0.416641
G03 X31.276666 Y43.045006 Z-1.000000 I-6.018639 J-1.805583
G02 X30.323200 Y44.938400 Z-1.000000 I5.257586 J3.834358
G02 X28.676777 Y52.495106 Z-1.000000 I41.826204 J13.070628
G03 X27.796267 Y58.204800 Z-1.000000 I-106.760909 J-13.541194
G02 X25.315984 Y74.473267 Z-1.000000 I283.504398 J51.546262
G02 X25.269333 Y91.054930 Z-1.000000 I68.780065 J8.484402
G02 X42.035732 Y115.682243 Z-1.000000 I31.999866 J-3.764690
G02 X70.754133 Y123.273340 Z-1.000000 I30.280041 J-56.435675
G02 X89.003163 Y123.584055 Z-1.000000 I30.232934 J-1239.593180
G02 X107.394660 Y123.273340 Z-1.000000 I3.347331 J-346.328635
G02 X109.606297 Y122.968079 Z-1.000000 I-0.518460 J-11.920643
G03 X111.816800 Y122.641600 Z-1.000000 I3.038990 J12.929591
G02 X114.814508 Y122.132393 Z-1.000000 I-0.898397 J-14.367255
G03 X119.397600 Y123.905070 Z-1.000000 I1.108854 J3.944079
G03 X120.137222 Y125.749450 Z-1.000000 I-4.779202 J2.987017
G02 X120.661070 Y127.695470 Z-1.000000 I16.791489 J-3.476570
G02 X123.151018 Y135.070751 Z-1.000000 I960.854027 J-320.283329
G02 X125.714930 Y142.225330 Z-1.000000 I245.154855 J-83.816892
G03 X131.325461 Y157.743348 Z-1.000000 I-652.236703 J244.589075
G03 X135.190930 Y173.812000 Z-1.000000 I-78.950175 J27.491489
G03 X135.658417 Y178.223728 Z-1.000000 I-69.777296 J9.624561
G03 X135.822660 Y182.656270 Z-1.000000 I-59.730079 J4.432542
G03 X133.920355 Y193.840330 Z-1.000000 I-33.827906 J-0.000000
G03 X128.241870 Y202.240002 Z-1.000000 I-18.786883 J-6.581352
G02 X126.006532 Y204.489943 Z-1.000000 I14.967613 J17.105853
G03 X123.188000 Y206.030401 Z-1.000000 I-3.466214 J-2.993310
G03 X116.286101 Y205.290748 Z-1.000000 I-1.994427 J-13.961015
G02 X109.921600 Y207.293869 Z-1.000000 I-1.892642 J5.099023
G02 X108.185496 Y212.842157 Z-1.000000 I8.027849 J5.557743
G02 X109.426905 Y223.269065 Z-1.000000 I44.051494 J0.042661
G02 X113.078801 Y233.055331 Z-1.000000 I42.683884 J-10.353635
G02 X117.502400 Y237.617068 Z-1.000000 I9.753941 J-5.032882
G02 X119.038110 Y238.051618 Z-1.000000 I1.690232 J-3.042426
G03 X120.661070 Y238.248801 Z-1.000000 I-0.474930 J10.686679
G00 Z2.000000

(End cutting path id: path1)


(Footer)
M5
G00 X0.0000 Y0.0000
M2
(Using default footer. To add your own footer create file "footer" in the output dir.)
(end)
%