%
(Header)
(Generated by gcodetools from Inkscape.)
(Using default header. To add your own header create file "header" in the output dir.)
M3
(Header end.)
G21 (All units in mm)

(Start cutting path id: path2)
(Change tool to Default tool)

G00 Z2.000000
G00 X52.433865 Y264.781601

G01 Z-1.000000 F100.0(Penetrate)
G02 X40.873757 Y254.918417 Z-1.000000 I-113.885220 J121.772661 F400.000000
G03 X29.691467 Y244.566135 Z-1.000000 I54.373016 J-69.948010
G03 X16.564527 Y225.332093 Z-1.000000 I62.206977 J-56.551798
G03 X10.739466 Y202.871734 Z-1.000000 I50.782730 J-25.155967
G03 X10.578328 Y195.408688 Z-1.000000 I143.435675 J-6.830251
G03 X14.529867 Y188.341870 Z-1.000000 I8.360706 J0.036844
G03 X22.194020 Y185.704824 Z-1.000000 I9.616712 J15.493596
G03 X37.812839 Y184.830138 Z-1.000000 I16.321038 J151.550353
G03 X53.789373 Y185.291029 Z-1.000000 I1.100956 J238.975270
G03 X61.909867 Y185.814940 Z-1.000000 I-118.295640 J1896.747162
G03 X72.017452 Y186.764750 Z-1.000000 I-12.448558 J186.729640
G02 X82.125332 Y187.710140 Z-1.000000 I22.199098 J-182.839085
G02 X105.571726 Y188.749843 Z-1.000000 I36.034433 J-547.723817
G02 X125.083200 Y188.973600 Z-1.000000 I19.511474 J-850.584050
G02 X133.249702 Y188.969066 Z-1.000000 I-0.000000 J-7353.877750
G02 X145.386296 Y188.261429 Z-1.000000 I-0.118222 J-106.458080
G02 X156.778440 Y185.881580 Z-1.000000 I-7.405980 J-63.908395
G02 X164.250660 Y181.392800 Z-1.000000 I-5.261920 J-17.222905
G02 X164.765789 Y180.226789 Z-1.000000 I-1.248222 J-1.248243
G03 X164.882400 Y178.865870 Z-1.000000 I17.552531 J0.818545
G02 X160.061404 Y163.897163 Z-1.000000 I-18.477372 J-2.309669
G03 X150.352530 Y151.701330 Z-1.000000 I76.114422 J-70.555708
G02 X144.438247 Y143.070990 Z-1.000000 I-1198.932035 J815.274149
G02 X136.454400 Y132.749340 Z-1.000000 I-99.501191 J68.716059
G03 X131.741047 Y127.220607 Z-1.000000 I429.439651 J-370.879206
G03 X128.241870 Y120.746400 Z-1.000000 I13.893999 J-11.692143
G03 X127.996249 Y119.566468 Z-1.000000 I6.702117 J-2.010678
G03 X127.601955 Y114.773385 Z-1.000000 I64.672311 J-7.732911
G03 X127.628952 Y110.207935 Z-1.000000 I44.677509 J-2.018611
G03 X128.241870 Y109.375200 Z-1.000000 I0.945418 J0.053926
G03 X130.449837 Y109.050897 Z-1.000000 I1.853957 J4.943933
G02 X132.664000 Y108.743470 Z-1.000000 I0.368014 J-5.476652
G02 X142.435738 Y102.019248 Z-1.000000 I-7.768385 J-21.751461
G02 X149.089070 Y92.318400 Z-1.000000 I-41.735891 J-35.756601
G02 X152.055723 Y86.654386 Z-1.000000 I-245.736520 J-132.318895
G02 X154.142930 Y80.315470 Z-1.000000 I-19.517948 J-9.939734
G02 X154.467896 Y77.122150 Z-1.000000 I-24.856091 J-4.142659
G02 X154.142930 Y73.998140 Z-1.000000 I-11.140823 J-0.420015
G02 X153.545260 Y73.257457 Z-1.000000 I-1.097956 J0.274483
G03 X153.511200 Y72.734670 Z-1.000000 I0.133656 J-0.271211
G03 X156.554635 Y72.380555 Z-1.000000 I1.868414 J2.802621
G02 X161.723730 Y72.102940 Z-1.000000 I2.265172 J-6.085461
G00 Z2.000000

(End cutting path id: path2)


(Footer)
M5
G00 X0.0000 Y0.0000
M2
(Using default footer. To add your own footer create file "footer" in the output dir.)
(end)
%