%
(Header)
(Generated by gcodetools from Inkscape.)
(Using default header. To add your own header create file "header" in the output dir.)
M3
(Header end.)
G21 (All units in mm)

(Start cutting path id: path3)
(Change tool to Default tool)

G00 Z2.000000
G00 X176.253600 Y243.934400

G01 Z-1.000000 F100.0(Penetrate)
G03 X176.519352 Y217.699183 Z-1.000000 I280.394822 J-10.278672 F400.000000
G02 X177.517070 Y191.500540 Z-1.000000 I-694.878276 J-39.581243
G02 X177.624875 Y169.075948 Z-1.000000 I-777.413498 J-14.949929
G03 X177.517070 Y146.647470 Z-1.000000 I2333.031084 J-22.428478
G01 X177.517070 Y124.536800 Z-1.000000
G03 X177.958631 Y113.736396 Z-1.000000 I132.307583 J-0.000000
G02 X176.885330 Y102.426140 Z-1.000000 I-32.273949 J-2.643378
G02 X175.663339 Y99.254803 Z-1.000000 I-16.932756 J4.703492
G03 X174.358400 Y96.108800 Z-1.000000 I21.327294 J-10.690046
G02 X171.440569 Y87.556052 Z-1.000000 I-610.198960 J203.399653
G02 X167.409330 Y79.683740 Z-1.000000 I-30.469301 J10.634352
G02 X163.227217 Y74.711616 Z-1.000000 I-30.081404 J21.056953
G03 X159.828530 Y70.839470 Z-1.000000 I26.928975 J-27.063922
G03 X155.157443 Y63.940026 Z-1.000000 I57.377948 J-43.877166
G02 X149.720800 Y57.573070 Z-1.000000 I-21.340600 J12.717793
G02 X145.374668 Y55.091631 Z-1.000000 I-9.151668 J10.981997
G03 X140.244800 Y53.150940 Z-1.000000 I48.950180 J-137.141307
G03 X136.783601 Y51.536236 Z-1.000000 I12.672493 J-31.681097
G02 X133.295730 Y49.992270 Z-1.000000 I-11.914331 J22.203286
G02 X126.188273 Y47.771364 Z-1.000000 I-32.672766 J92.077785
G02 X114.245571 Y45.128429 Z-1.000000 I-34.094032 J125.757236
G02 X102.323664 Y43.841973 Z-1.000000 I-16.101673 J93.333337
G02 X94.759998 Y44.938400 Z-1.000000 I-0.901849 J20.415683
G02 X83.418452 Y53.903418 Z-1.000000 I7.129782 J20.676351
G02 X75.571641 Y70.715136 Z-1.000000 I61.196941 J38.800553
G02 X70.823377 Y90.372333 Z-1.000000 I135.226495 J43.066505
G03 X68.227198 Y104.321340 Z-1.000000 I-382.212993 J-63.921109
G03 X66.529758 Y112.269040 Z-1.000000 I-491.835783 J-100.889351
G03 X64.436799 Y120.114670 Z-1.000000 I-93.975257 J-20.867557
G02 X62.308994 Y126.973623 Z-1.000000 I1651.171870 J515.990943
G02 X60.646399 Y134.012800 Z-1.000000 I51.784764 J15.947066
G02 X59.551887 Y143.783752 Z-1.000000 I90.518213 J15.086345
G03 X58.751199 Y153.596540 Z-1.000000 I-209.493650 J-12.154874
G03 X57.771916 Y160.542555 Z-1.000000 I-99.157202 J-10.437619
G02 X56.856000 Y167.494670 Z-1.000000 I78.038274 J13.817657
G02 X56.698439 Y174.741363 Z-1.000000 I55.587071 J4.833657
G03 X56.856000 Y182.024530 Z-1.000000 I-168.251713 J7.283167
G03 X54.688449 Y188.286721 Z-1.000000 I-10.129708 J0.000000
G02 X53.065600 Y195.290930 Z-1.000000 I6.651266 J5.231183
G02 X56.119032 Y202.284864 Z-1.000000 I18.729417 J-4.013438
G03 X60.014667 Y208.557333 Z-1.000000 I-53.579985 J37.622823
G03 X61.255432 Y211.518684 Z-1.000000 I-13.763283 J7.507231
G02 X62.541599 Y214.242935 Z-1.000000 I9.848227 J-2.983786
G02 X63.173333 Y214.874668 Z-1.000000 I1.895204 J-1.263473
G03 X63.805066 Y215.506400 Z-1.000000 I-1.263465 J1.895200
G03 X63.789491 Y215.835036 Z-1.000000 I-0.230635 J0.153757
G02 X63.805066 Y216.138135 Z-1.000000 I0.175755 J0.142918
G02 X64.436800 Y216.138134 Z-1.000000 I0.315867 J-0.315869
G03 X65.068534 Y216.138135 Z-1.000000 I0.315867 J0.315868
G03 X65.119288 Y216.733285 Z-1.000000 I-0.327684 J0.327684
G02 X65.068534 Y217.401600 Z-1.000000 I0.532776 J0.376546
G02 X66.195997 Y219.071913 Z-1.000000 I6.946591 J-3.473281
G02 X67.595466 Y220.560267 Z-1.000000 I24.874468 J-21.986830
G00 Z2.000000

(End cutting path id: path3)


(Footer)
M5
G00 X0.0000 Y0.0000
M2
(Using default footer. To add your own footer create file "footer" in the output dir.)
(end)
%